static/logos/instacart-wordmark-color.svg

<svg width="100" height="16" viewBox="0 0 100 16" fill="none" xmlns="http://www.w3.org/2000/svg">
<g clip-path="url(#clip0_1_2341)">
<path d="M38.5744 8.58L37.2464 8.458C36.3757 8.382 36.025 8.07667 36.025 7.542C36.025 6.916 36.559 6.504 37.597 6.504C38.5744 6.504 39.063 6.93067 39.139 7.618H42.2537C42.055 5.588 40.6204 4.15267 37.689 4.15267C34.6357 4.15267 32.9557 5.71 32.9557 7.77067C32.9557 9.69467 34.009 10.748 36.6204 10.962L37.9337 11.0687C38.9557 11.1453 39.3224 11.496 39.3224 12.1067C39.3224 12.748 38.7884 13.2213 37.689 13.2213C36.6657 13.2213 36.0557 12.7633 35.949 11.9547H32.6657C32.9557 14.168 34.513 15.6333 37.6737 15.6333C40.7424 15.6333 42.437 14.0613 42.437 11.9387C42.437 9.878 41.307 8.82467 38.5744 8.58ZM27.8264 4.15267C25.8724 4.15267 24.7117 5.17533 24.1624 7.26733H23.9637V4.336H20.8797V15.4507H24.1624V8.97733C24.1624 7.496 24.9257 6.68733 26.2997 6.68733C27.6584 6.68733 28.3304 7.52733 28.3304 8.962V15.4507H31.6124V8.382C31.6124 5.69467 30.2077 4.15267 27.8257 4.15267H27.8264ZM17.689 0C16.5744 0 15.7344 0.733333 15.7344 1.84733C15.7344 2.962 16.559 3.69467 17.6737 3.69467C18.7884 3.69467 19.6124 2.96133 19.6124 1.84733C19.6124 0.748 18.7884 0 17.689 0ZM19.3224 4.336H16.0397V15.4507H19.3224V4.336ZM47.597 1.98467H45.5057C45.4444 3.77133 44.681 4.54933 42.971 4.68667V6.94667H44.315V11.832C44.315 14.29 45.719 15.6333 48.513 15.6333C49.0384 15.6333 49.5617 15.5667 50.0704 15.4353V12.7933C49.8082 12.8369 49.5428 12.8571 49.277 12.854C48.101 12.854 47.597 12.4113 47.597 11.1747V6.94667H50.483V4.336H47.597V1.98467ZM99.6583 6.94667V4.336H96.773V1.98467H94.7116C94.6656 3.22133 94.2996 3.93867 93.4903 4.336V11.832C93.4903 14.29 94.895 15.6333 97.689 15.6333C98.2143 15.6333 98.7376 15.5667 99.2463 15.4353V12.7933C98.9843 12.8369 98.7183 12.8572 98.4523 12.854C97.2763 12.854 96.773 12.4113 96.773 11.1747V6.94667H99.6583ZM88.9103 7.43533H88.7116V4.33533H85.6736V15.4507H88.9563V9.43533C88.9563 7.77067 89.7043 7.06867 91.4143 7.06867C91.7043 7.06867 92.025 7.09933 92.4676 7.17533V4.30533C92.1683 4.20035 91.8536 4.14868 91.5363 4.15267C90.2076 4.15267 89.2916 4.916 88.9103 7.43533ZM67.9483 12.8247C66.4064 12.8247 65.2917 11.8013 65.2917 9.81667C65.2917 8.046 66.3297 6.94667 67.9176 6.94667C69.2763 6.94667 70.055 7.71 70.2843 8.93133H73.6123C73.2916 6.076 71.2463 4.15267 67.9636 4.15267C64.3604 4.15267 61.9944 6.59533 61.9944 9.93933C61.9944 13.4047 64.269 15.6333 67.9176 15.6333C71.231 15.6333 73.3836 13.7867 73.689 10.7933H70.3603C70.1776 12.0153 69.3376 12.8247 67.9483 12.8247ZM56.1777 4.15267C53.3224 4.15267 51.5977 5.55733 51.2917 8.076H54.437C54.5437 7.206 55.109 6.748 56.101 6.748C57.1084 6.748 57.5664 7.206 57.5664 7.86267C57.5664 8.412 57.2157 8.70267 56.315 8.87L54.8184 9.14533C52.1777 9.63333 51.1697 10.7173 51.1697 12.4427C51.1697 14.412 52.559 15.6493 54.483 15.6493C56.055 15.6493 57.0784 14.916 57.5517 13.084H57.7497V15.4507H60.8497V8.19867C60.8497 5.67933 59.3377 4.15267 56.1777 4.15267ZM55.811 13.4047C54.9257 13.4047 54.4217 12.9313 54.4217 12.2287C54.4217 11.6487 54.773 11.252 55.643 11.0533L56.2537 10.916C56.7804 10.794 57.189 10.6313 57.567 10.3047V11.4807C57.567 12.8393 56.849 13.4047 55.811 13.4047ZM79.5056 4.15267C76.6503 4.15267 74.9256 5.55733 74.6203 8.076H77.765C77.8723 7.206 78.437 6.748 79.429 6.748C80.437 6.748 80.895 7.206 80.895 7.86267C80.895 8.412 80.5436 8.70267 79.643 8.87L78.147 9.14533C75.5056 9.63333 74.4976 10.7173 74.4976 12.4427C74.4976 14.412 75.887 15.6493 77.811 15.6493C79.3836 15.6493 80.4063 14.916 80.8796 13.084H81.0783V15.4507H84.1776V8.19867C84.1776 5.67933 82.6656 4.15267 79.5056 4.15267ZM79.139 13.4047C78.2536 13.4047 77.7496 12.9313 77.7496 12.2287C77.7496 11.6487 78.101 11.252 78.971 11.0533L79.5816 10.916C80.1083 10.794 80.5176 10.6313 80.895 10.3047V11.4807C80.895 12.8393 80.1776 13.4047 79.139 13.4047Z" fill="#003D29"/>
<path d="M10.5133 2.65929C9.83867 2.65929 9.35733 2.95329 8.91333 3.59195L7.63333 5.42995V0.183289H4.58001V5.42995L3.30001 3.59195C2.85668 2.95329 2.37535 2.65929 1.70001 2.65929C0.681347 2.65929 0.00334749 3.41129 1.41576e-05 4.33795C-0.00265251 5.13129 0.371347 5.64862 1.16001 6.15662L6.10668 9.34329L11.0533 6.15662C11.842 5.64862 12.216 5.13129 12.2133 4.33795C12.2107 3.41129 11.532 2.65929 10.5133 2.65929Z" fill="#0AAD0A"/>
<path d="M6.10897 10.1066C9.04894 10.1066 11.4589 12.3013 11.4523 15.4506H0.765636C0.759636 12.3026 3.16897 10.1066 6.10897 10.1066Z" fill="#FF7009"/>
</g>
<defs>
<clipPath id="clip0_1_2341">
<rect width="100" height="16" fill="white"/>
</clipPath>
</defs>
</svg>

<svg xmlns="http://www.w3.org/2000/svg" width="400" height="64" fill="none" viewBox="0 0 100 16"><g clip-path="url(#a)"><path fill="#003D29" d="m38.574 8.58-1.328-.122c-.87-.076-1.221-.381-1.221-.916 0-.626.534-1.038 1.572-1.038.977 0 1.466.427 1.542 1.114h3.115c-.199-2.03-1.634-3.465-4.565-3.465-3.053 0-4.733 1.557-4.733 3.618 0 1.924 1.053 2.977 3.664 3.191l1.314.107c1.022.076 1.388.427 1.388 1.038 0 .641-.534 1.114-1.633 1.114-1.023 0-1.633-.458-1.74-1.266h-3.283c.29 2.213 1.847 3.678 5.008 3.678 3.068 0 4.763-1.572 4.763-3.694 0-2.061-1.13-3.114-3.863-3.359ZM27.826 4.153c-1.954 0-3.114 1.022-3.664 3.114h-.198V4.336H20.88v11.115h3.282V8.977c0-1.481.764-2.29 2.138-2.29 1.358 0 2.03.84 2.03 2.275v6.489h3.282V8.382c0-2.687-1.404-4.23-3.786-4.23ZM17.69 0c-1.115 0-1.955.733-1.955 1.847 0 1.115.825 1.848 1.94 1.848 1.114 0 1.938-.734 1.938-1.848C19.612.748 18.788 0 17.69 0Zm1.633 4.336H16.04v11.115h3.282V4.336Zm28.275-2.351h-2.091c-.062 1.786-.825 2.564-2.535 2.702v2.26h1.344v4.885c0 2.458 1.404 3.801 4.198 3.801.525 0 1.049-.066 1.557-.198v-2.642a4.515 4.515 0 0 1-.793.061c-1.176 0-1.68-.443-1.68-1.68V6.948h2.886V4.336h-2.886V1.985Zm52.061 4.962V4.336h-2.885V1.985h-2.061c-.046 1.236-.412 1.954-1.222 2.351v7.496c0 2.458 1.405 3.801 4.199 3.801.525 0 1.049-.066 1.557-.198v-2.642a4.51 4.51 0 0 1-.794.061c-1.176 0-1.679-.443-1.679-1.68V6.948h2.885Zm-10.748.488h-.198v-3.1h-3.038v11.116h3.282V9.435c0-1.664.748-2.366 2.458-2.366.29 0 .611.03 1.054.106v-2.87a2.709 2.709 0 0 0-.932-.152c-1.328 0-2.244.763-2.626 3.282Zm-20.962 5.39c-1.542 0-2.656-1.024-2.656-3.008 0-1.771 1.038-2.87 2.626-2.87 1.358 0 2.137.763 2.366 1.984h3.328c-.32-2.855-2.366-4.778-5.648-4.778-3.604 0-5.97 2.442-5.97 5.786 0 3.466 2.275 5.694 5.924 5.694 3.313 0 5.466-1.846 5.771-4.84H70.36c-.182 1.222-1.022 2.032-2.412 2.032Zm-11.77-8.672c-2.856 0-4.58 1.404-4.886 3.923h3.145c.107-.87.672-1.328 1.664-1.328 1.007 0 1.465.458 1.465 1.115 0 .549-.35.84-1.251 1.007l-1.497.275c-2.64.488-3.648 1.572-3.648 3.298 0 1.969 1.389 3.206 3.313 3.206 1.572 0 2.595-.733 3.069-2.565h.198v2.367h3.1V8.199c0-2.52-1.512-4.046-4.672-4.046Zm-.367 9.252c-.885 0-1.39-.474-1.39-1.176 0-.58.352-.977 1.222-1.176l.61-.137c.527-.122.936-.285 1.314-.611v1.176c0 1.358-.718 1.924-1.756 1.924Zm23.695-9.252c-2.856 0-4.58 1.404-4.886 3.923h3.145c.107-.87.672-1.328 1.664-1.328 1.008 0 1.466.458 1.466 1.115 0 .549-.351.84-1.252 1.007l-1.496.275c-2.641.488-3.65 1.572-3.65 3.298 0 1.969 1.39 3.206 3.314 3.206 1.573 0 2.595-.733 3.069-2.565h.198v2.367h3.1V8.199c0-2.52-1.512-4.046-4.672-4.046Zm-.367 9.252c-.885 0-1.39-.474-1.39-1.176 0-.58.352-.977 1.222-1.176l.61-.137c.527-.122.937-.285 1.314-.611v1.176c0 1.358-.717 1.924-1.756 1.924Z"/><path fill="#0AAD0A" d="M10.513 2.66c-.674 0-1.156.293-1.6.932L7.633 5.43V.183H4.58V5.43L3.3 3.592c-.443-.639-.925-.933-1.6-.933-1.019 0-1.697.752-1.7 1.679-.003.793.371 1.31 1.16 1.819l4.947 3.186 4.946-3.186c.789-.508 1.163-1.026 1.16-1.819-.002-.927-.681-1.679-1.7-1.679Z"/><path fill="#FF7009" d="M6.109 10.107c2.94 0 5.35 2.194 5.343 5.344H.766c-.006-3.148 2.403-5.344 5.343-5.344Z"/></g><defs><clipPath id="a"><path fill="#fff" d="M0 0h100v16H0z"/></clipPath></defs></svg>
